X:1
T:Title
%%score { ( 1 3 ) | 2 }
L:1/8
M:4/4
K:G
V:1 treble nm="Grand Piano"
V:3 treble 
V:2 bass 
V:1
 z4 z[Q:1/4=100] [B,D][B,G][CA] | [DB]3 [DB] [DB][B,G][CF][DG] | A D3- DDFG | %3
 A3 A [FA][GB][Bd][Ac] | B4- BD[B,G][CA] | [DB]3 [DB] [Dd][DB][B,G][D=F] | %6
 [CE] [Ec]3- [Ec][DB][DB][DB] |[M:21/16] z3/2 z/ [Ge]-[Ge]3/2 z3/2 z3/2 z3 | %8
[M:5/8] [B,DG]-[B,DG]- [B,DG]3 |] %9
V:2
 z4 z [G,,G,][G,,G,][G,,G,] | [G,,G,]3 [G,,G,] [G,,G,][G,,D,][A,,D,][B,,G,] | %2
 [D,F,D] [F,C]3- [F,C][F,C][D,CD][D,B,D] | [D,F,C]3 [D,F,C] [D,D][D,D][D,D][F,D] | %4
 [G,DG]4- [G,DG][K:bass][G,B,][G,,G,][G,,G,] | [G,,G,]3 [G,,G,] [B,,G,][G,,G,][G,,G,][B,,G,] | %6
 [C,G,] [C,G,]3- [C,G,][G,,G,][G,,G,][G,,G,] |[M:21/16] [G,B,]->[G,B,][C,C]^C,3/2 D,3 D,3 | %8
[M:5/8] G,,-G,,- G,,3 |] %9
V:3
 x8 | x8 | x8 | x8 | x8 | x8 | x8 |[M:21/16] [Gd]->[Gd] z _B,3/2 [=B,DG]3 [CDA]3 |[M:5/8] x5 |] %9

